Simply-Black-Circles/scalable/actions/kdeconnect.svg

<svg xmlns="http://www.w3.org/2000/svg" width="24" height="24" viewBox="0 0 6.35 6.35"><path d="M1.54.37c-.13 0-.23.1-.23.24v5.13c0 .13.1.24.23.24h3.27c.13 0 .23-.1.23-.24V.61c0-.13-.1-.24-.23-.24H1.54zm.29.73h2.7c.09 0 .16.07.16.17v3.61c0 .1-.07.17-.17.17h-2.7a.17.17 0 0 1-.16-.17V1.27c0-.1.07-.17.17-.17zm1.34.76h-.12l-.07.4a.94.94 0 0 0-.19.06l-.29-.28a1.3 1.3 0 0 0-.2.15l.18.36a.95.95 0 0 0-.11.16l-.4-.06a1.3 1.3 0 0 0-.08.24l.35.2a.9.9 0 0 0 0 .09v.09l-.35.19.08.24.4-.05.1.15-.16.36.2.15.28-.28c.06.03.12.05.19.06l.07.4a1.34 1.34 0 0 0 .25 0l.07-.4a.93.93 0 0 0 .19-.06l.28.28c.08-.04.14-.1.2-.15l-.17-.36a.96.96 0 0 0 .11-.15l.4.05a1.3 1.3 0 0 0 .08-.24l-.35-.2a1.03 1.03 0 0 0 0-.18l.35-.19a1.3 1.3 0 0 0-.08-.24l-.4.06a.95.95 0 0 0-.1-.16l.16-.36a1.3 1.3 0 0 0-.2-.15l-.28.28a.94.94 0 0 0-.19-.06l-.07-.4a1.34 1.34 0 0 0-.13 0zm0 .75a.56.56 0 0 1 0 1.13.56.56 0 0 1 0-1.13z" fill="#1a1a1a" fill-rule="evenodd"/></svg>

<?xml version="1.0" encoding="UTF-8" standalone="no"?>
<svg
   xmlns:dc="http://purl.org/dc/elements/1.1/"
   xmlns:cc="http://creativecommons.org/ns#"
   xmlns:rdf="http://www.w3.org/1999/02/22-rdf-syntax-ns#"
   xmlns:svg="http://www.w3.org/2000/svg"
   xmlns="http://www.w3.org/2000/svg"
   xmlns:sodipodi="http://sodipodi.sourceforge.net/DTD/sodipodi-0.dtd"
   xmlns:inkscape="http://www.inkscape.org/namespaces/inkscape"
   width="24"
   height="24"
   viewBox="0 0 6.35 6.35"
   version="1.1"
   id="svg4"
   sodipodi:docname="kdeconnect.svg"
   inkscape:version="0.92.4 (5da689c313, 2019-01-14)">
  <metadata
     id="metadata10">
    <rdf:RDF>
      <cc:Work
         rdf:about="">
        <dc:format>image/svg+xml</dc:format>
        <dc:type
           rdf:resource="http://purl.org/dc/dcmitype/StillImage" />
        <dc:title></dc:title>
      </cc:Work>
    </rdf:RDF>
  </metadata>
  <defs
     id="defs8" />
  <sodipodi:namedview
     pagecolor="#ffffff"
     bordercolor="#666666"
     borderopacity="1"
     objecttolerance="10"
     gridtolerance="10"
     guidetolerance="10"
     inkscape:pageopacity="0"
     inkscape:pageshadow="2"
     inkscape:window-width="1078"
     inkscape:window-height="480"
     id="namedview6"
     showgrid="false"
     inkscape:zoom="9.8333333"
     inkscape:cx="-0.81355932"
     inkscape:cy="12"
     inkscape:window-x="0"
     inkscape:window-y="28"
     inkscape:window-maximized="0"
     inkscape:current-layer="svg4" />
  <path
     d="m 1.54,0.37 c -0.13,0 -0.23,0.1 -0.23,0.24 v 5.13 c 0,0.13 0.1,0.24 0.23,0.24 h 3.27 c 0.13,0 0.23,-0.1 0.23,-0.24 V 0.61 C 5.04,0.48 4.94,0.37 4.81,0.37 Z M 1.83,1.1 h 2.7 c 0.09,0 0.16,0.07 0.16,0.17 v 3.61 c 0,0.1 -0.07,0.17 -0.17,0.17 H 1.82 A 0.17,0.17 0 0 1 1.66,4.88 V 1.27 C 1.66,1.17 1.73,1.1 1.83,1.1 Z M 3.17,1.86 H 3.05 L 2.98,2.26 A 0.94,0.94 0 0 0 2.79,2.32 L 2.5,2.04 A 1.3,1.3 0 0 0 2.3,2.19 L 2.48,2.55 A 0.95,0.95 0 0 0 2.37,2.71 L 1.97,2.65 A 1.3,1.3 0 0 0 1.89,2.89 l 0.35,0.2 a 0.9,0.9 0 0 0 0,0.09 V 3.27 L 1.89,3.46 1.97,3.7 2.37,3.65 2.47,3.8 2.31,4.16 2.51,4.31 2.79,4.03 c 0.06,0.03 0.12,0.05 0.19,0.06 l 0.07,0.4 a 1.34,1.34 0 0 0 0.25,0 L 3.37,4.09 A 0.93,0.93 0 0 0 3.56,4.03 L 3.84,4.31 C 3.92,4.27 3.98,4.21 4.04,4.16 L 3.87,3.8 A 0.96,0.96 0 0 0 3.98,3.65 L 4.38,3.7 A 1.3,1.3 0 0 0 4.46,3.46 L 4.11,3.26 a 1.03,1.03 0 0 0 0,-0.18 L 4.46,2.89 A 1.3,1.3 0 0 0 4.38,2.65 L 3.98,2.71 A 0.95,0.95 0 0 0 3.88,2.55 L 4.04,2.19 A 1.3,1.3 0 0 0 3.84,2.04 L 3.56,2.32 A 0.94,0.94 0 0 0 3.37,2.26 L 3.3,1.86 a 1.34,1.34 0 0 0 -0.13,0 z m 0,0.75 a 0.565,0.565 0 0 1 0,1.13 0.565,0.565 0 0 1 0,-1.13 z"
     id="path2"
     inkscape:connector-curvature="0"
     style="fill:#1a1a1a;fill-rule:evenodd" />
</svg>
